X:181
U: ~ = !turn!
%%topmargin 3cm
T:Sally Gardens
B:Traditional Irish Fiddle Tunes. Randy Miller and Jack Perron.
S:Sean McGuire
Z:Transcribed by Ralph Palmer
R:Reel
M:C|
L:1/8
K:G
JG2 DG {Bc}B2 GB | dBeB dB (3.B.B.B | d2 Bd eBdB | ((3ABc) BA GEDE |
JG2 AG {Bc}B2 GB | dBeB dB (3.B.B.B | dcBd efgB | cAFA G2 z2 ::
dg (3.g.g.f g2 dg | (3.g.g.g bg agfg | ea (3.a.a.g a2 ea | agbg ageg |
dg (3.g.g.f g2 dg | (3.g.g.g bg agec | d2 Bd ((3efg) dB | cAFA G2 z2:|]
